X: 24
T: Pollonesse #24
M: 3/4
L: 1/16
K: D
Q:120
d2B2c4d4|efed c2d2 e2f2|gagf efed c2d2| efed dedc A4|
d2B2c4d4|efed c2d2 e2f2|gagf efed c2d2|egec d4D4:|
a2F2 F2a2 a2gf g2E2 E2g2 g2fe| f2D2 D2f2 f2ed|c2d2 edcB A4|
a2F2 F2a2 a2gf g2E2 E2g2 g2fe| f2D2 D2f2 f2ed|cdec d4D4:|

